X: 15605
T: Goat In The Cold, The
R: waltz
M: 3/4
K: Amajor
|:"A"e2 A "E7"B>AG|"A"A3 E3|"D" F>Ad f>ed|"A"e3 c3|
"Bm"F>Bd f>ed|"A"E>Ac e>dc|"E7"D>GB d>cB|"A"A6:|
|:"A"e2 a "E7"b>ag|"A"a3 e3|"D"f>Aa a>gf|"A"e3 c3|
"E7"D>GB d>cB|"A"C>EA c>BA|"E7"B,>EG B>AG|"A"A6:|

